file/freddie-mac.svg

<svg clip-rule="evenodd" fill-rule="evenodd" stroke-linejoin="round" stroke-miterlimit="1.41421" viewBox="0 0 560 400" xmlns="http://www.w3.org/2000/svg"><g fill-rule="nonzero" transform="matrix(.936768 0 0 .936768 92.5995 59.4848)"><path d="m7.9 84.1v90.4l58.1-41.2 31.1 22.1v-71.3z" fill="#009ce1"/><path d="m66 150.2-58.1 41.1v26h89.3v-45.1zm8.6 47.9h-17.3v-24h17.3z" fill="#6eb329"/><path d="m124 147.9c-3.9 0-7.8.4-11.7.4-.9 0-1.7-.2-1.7-1.3 0-1.3 2.2-1.2 3.1-1.2 7.2 0 6.7-2.1 6.7-8.5v-42.3c0-6.4.4-8.2-6.7-8.2-1 0-3.2-.1-3.2-1.4 0-1 .8-1.3 1.7-1.3 3.3 0 6.4.4 9.6.4 11.7 0 23.4-.4 35.2-.4 2 0 1.6 2 1.6 3.6v7.2c0 .8.5 4-1 4-1 0-1.4-1.4-1.6-2.2-2.8-9.7-8.9-9.8-18-9.8-1.7 0-7.1 0-8.7.7-1.5.7-1.3 3.6-1.3 4.9v14.5c0 4.8.9 4.8 5.1 4.8 3.1 0 8.4.1 12.4-.4 2.6-.3 3.1-4.1 3.6-7.1.1-.6.4-1.7 1.3-1.7.5 0 1.1.2 1.1 1-.1 2.9-.3 5.9-.5 8.8.2 3.3.4 6.3.5 9.6 0 1.6-.6 1.8-1.1 1.8-.9 0-1.2-1.1-1.3-1.7-.5-3-1.3-6-3.6-6.6-4-.9-9.3-.9-12.4-.9-4.1 0-5.1 0-5.1 3.5v19.1c0 6.6-.4 8.4 6.7 8.5.9 0 2.7-.1 2.7 1.2 0 1.1-.8 1.3-1.7 1.3-4.1.1-7.8-.3-11.7-.3zm65-37.5c0-2.8-2.5-4.5-5.4-4.5-6.5 0-10.2 7.5-11.1 7.5-.7 0-.5-1.6-.5-2v-4.6c0-.6.1-1.5-.8-1.5-.8 0-1.2.8-1.7 1.2-1.5 1.8-5.6 4.2-7.8 4.9-.8.3-2.2.5-2.2 1.6 0 .6.6.8 1.1.8h1.2c.8 0 2.2.1 2.7.7 1 1 .9 4.7.9 6v17.7c0 4 .8 7.3-4.2 7.7-1 .1-2.6-.1-2.6 1.3 0 .8.7.9 1.3.9 2.9 0 5.9-.4 9-.4 2.8 0 5.8.4 8.9.4.7 0 1.1-.3 1.1-1 0-1.2-1.7-1.1-2.7-1.2-5.1-.5-4.2-3.7-4.2-7.7v-14.9c0-3.8-.1-6.2 2.2-9.4 1.1-1.4 2.7-3.4 4.8-3.4 2.6 0 2.8 3.6 6 3.6 2.3.1 4-1.4 4-3.7zm-1 17c0-6.4 1.8-11.4 6.8-15.7 4.7-4.2 10.6-6.3 17-6.3 5.1 0 10.3 1.8 13.6 5.8 1.9 2.3 3.3 6.4 3.3 9.5 0 .8-.2 1.6-1.1 1.6h-28.6c-2.9 0-3.9-.2-3.9 2.9 0 10.6 6.9 19.7 18.3 19.7 9.3 0 12.7-6.1 14-6.1.5 0 .8.4.8.7 0 1.1-3 3.7-3.7 4.2-4.4 3.8-9.1 5.3-14.9 5.3-12.5.1-21.6-9.8-21.6-21.6zm7.8-8.6c0 1.5 2.2 1.2 3.2 1.2h7.6c2.9 0 8.2-.1 10.9-.8 2.1-.5 3.5-1.5 3.5-3.8 0-2-1.1-4.1-2.5-5.6-2.1-2.2-5.2-2.4-8.2-2.4-4.8 0-9.4 2.3-12.3 6.3-.7 1.2-2.2 3.6-2.2 5.1zm162.8 6.4c0 10.6 6.9 19.7 18.3 19.7 9.3 0 12.7-6.1 14-6.1.5 0 .7.4.7.7 0 1.1-3 3.7-3.7 4.2-4.4 3.8-9.1 5.3-14.9 5.3-12.4 0-21.5-9.9-21.5-21.7 0-6.4 1.8-11.4 6.8-15.7 4.7-4.2 10.6-6.3 17-6.3 5.1 0 10.3 1.8 13.6 5.8 1.9 2.3 3.3 6.4 3.3 9.5 0 .8-.2 1.6-1.1 1.6h-28.6c-3 .1-3.9-.1-3.9 3zm.7-6.4c0 1.5 2.2 1.2 3.2 1.2h7.6c2.9 0 8.2-.1 10.9-.8 2.1-.5 3.5-1.5 3.5-3.8 0-2-1.1-4.1-2.5-5.6-2.1-2.2-5.2-2.4-8.2-2.4-4.8 0-9.4 2.3-12.3 6.3-.7 1.2-2.2 3.6-2.2 5.1zm-17.3-21.7c2.7 0 4.1-2.2 4.1-4.7 0-2.3-1.5-4.5-4-4.5s-4.3 2.3-4.3 4.7c.2 2.4 1.7 4.5 4.2 4.5zm7.6 48.9c-5.1-.5-4.3-3.7-4.3-7.7v-31.5c0-.7.1-1.5-.8-1.5-.8 0-1.2.8-1.7 1.2-1.5 1.8-5.6 4.2-7.8 4.9-.8.3-2.2.5-2.2 1.6 0 .6.6.8 1.1.8h1.2c.7 0 2.2.1 2.7.7 1 1 .9 4.7.9 6v17.7c0 4.1.9 7.3-4.2 7.7-1 .1-2.6-.1-2.6 1.3 0 .8.7.9 1.3.9 2.9 0 5.9-.4 9-.4 2.8 0 5.8.4 8.9.4.6 0 1.1-.3 1.1-1 0-1.1-1.7-1-2.6-1.1zm-169.1 69.1c-1.3 0-2.7-.1-3.7-1.2-1.1-1.3-1-5.1-1-6.6v-38.9c0-1.7-.4-5.4.8-6.7.8-1 2.9-.7 4.1-.7 1 0 2.3-.2 2.3-1.5 0-1.5-1.7-1-2.7-1h-10.5c-1 0-2 0-2.5 1.2l-19.6 44.3-17.2-43c-.6-1.5-.7-2.7-2.5-2.7h-10.9c-1 0-2.7-.5-2.7 1 0 1.3 1.3 1.5 2.3 1.5 5.1 0 5.1.3 5.1 5.4v41.8c-.3 4.6-.6 7.1-5.9 7.1-.8 0-2.5.1-2.5 1.2 0 .9.7 1.1 1.5 1.1 2.7 0 5.6-.4 8.4-.4s5.7.4 8.5.4c.9 0 2.1 0 2.1-1.1 0-1.3-2-1.2-2.9-1.2-6.7 0-6.2-4.6-6.3-10.6v-38.9h.6l18.6 47.8c.2.6.5 1.8 1.4 1.8.8 0 1.1-1 1.4-1.7l20.9-49h.7v42.7c0 1.7.2 5.2-1.4 6.5-1 .8-3 1.3-4.4 1.3-.9 0-2.9-.2-2.9 1.2 0 1 1 1.1 1.8 1.1 3.7 0 7.5-.4 11.2-.4 3 0 6 .4 9.1.4.7 0 1.8-.1 1.8-1.1-.1-1.3-2.1-1.1-3-1.1zm44.8-3.2c0 1-1.6 2.4-2.3 2.9-1.9 1.3-4.3 2.7-6.7 2.7-4.6 0-5.1-6.6-6.4-6.6-.9 0-7 7.2-15.2 7.2-4.4 0-8.9-2.7-8.9-7.4 0-6.7 8.8-10.7 13.9-13.2l7.3-3.4c3.4-1.6 3.5-1.7 3.5-5.3v-4.2c0-4.6-.2-8-6-8s-8.7 2.6-10.9 7.4c-.7 1.4-1.1 2.7-2.6 3.4-1 .5-2.9 1.2-4.1 1.2-.7 0-1.2-.2-1.2-1.1 0-2.5 2.2-5.2 4-6.7 4.4-4 10.8-6.5 16.9-6.5 2.9 0 6.4.5 8.6 2.4 2.3 1.9 1.9 4.3 1.9 6.9v22.4c0 2.1-.1 7.5 3.3 7.5 2.4 0 3.4-2.4 4.3-2.4.3.1.6.5.6.8zm-15.4-17.2c-.3 0-.7.3-1 .4l-8.6 4.3c-3.7 1.9-7.4 4.3-7.4 8.9 0 3.7 3 5.4 6.5 5.4 3.3 0 6.5-1.5 8.8-3.8 2.3-2.4 2.4-3.8 2.4-6.9v-5.7c0-.3.3-2.6-.7-2.6zm50.9 14.7c-.5 0-1.1.9-1.4 1.1-2.9 2.8-6.8 4.2-10.8 4.2-10.6 0-17.6-9.8-17.6-19.4 0-5.8 2.4-11.5 6.8-15.3 2.4-2.1 6.2-3.7 9.5-3.7 7.6 0 9.3 10.2 12.3 10.2 1.7 0 1.1-4 1.1-4.8 0-1.2.5-3.3-.7-4.1-3-2.1-8-3.1-11.6-3.1-12.6 0-24.5 10-24.5 22.7 0 11.4 9.5 21 21.1 21 5.1 0 9.8-1.5 13.7-4.6.7-.6 2.8-2.4 2.8-3.4-.1-.4-.3-.8-.7-.8zm22-66.2c0 1-1.6 2.4-2.3 2.9-1.9 1.3-4.3 2.7-6.7 2.7-2.2 0-3.4-.6-4.2-3-.2-.5-.9-3.1-1.9-3.1-1.4 0-6.9 6.3-14.5 6.3-12 0-20.4-10.5-20.4-21.8 0-5.9 2.4-11.1 6.6-15.2 4.2-4 8.4-6.6 16.1-6.8 3.5-.1 7 .8 10.1 2 .5.2 1.3.6 1.8.6 1.1 0 .8-2.9.8-3.5v-9c0-3.5.8-7.6-3.7-7.6-.9 0-2.5.3-2.5-1 0-.7.8-.9 1.3-1 2.6-.5 6.2-1.4 8.5-2.9.5-.4 1.3-1 2-1 1 0 .8.7.8 1.5v55.8c0 1 .2 5.7 3.2 5.7 2.4 0 3.4-2.4 4.3-2.4.5.1.7.4.7.8zm-14.6-7.3v-17.1c0-2.9.2-6.1-2.3-8.3-2.3-2.2-6.6-3.3-9.7-3-10.3.9-16.4 9-16.4 18.4s5.8 19.1 16.3 19.1c3.9 0 8.5-1.3 11.1-4.4 1.3-1.5 1-2.9 1-4.7zm62.4 7.3c0 1-1.6 2.4-2.3 2.9-1.9 1.3-4.3 2.7-6.7 2.7-2.2 0-3.4-.6-4.2-3-.2-.5-.9-3.1-1.9-3.1-1.4 0-6.9 6.3-14.5 6.3-12 0-20.4-10.5-20.4-21.8 0-5.9 2.4-11.1 6.6-15.2 4.2-4 8.5-6.6 16.1-6.8 3.5-.1 7 .8 10.1 2 .5.2 1.3.6 1.8.6 1.1 0 .8-2.9.8-3.5v-9c0-3.5.8-7.6-3.7-7.6-.9 0-2.5.3-2.5-1 0-.7.8-.9 1.3-1 2.6-.5 6.2-1.4 8.5-2.9.5-.4 1.3-1 2-1 .9 0 .9.7.9 1.5v55.8c0 1 .2 5.7 3.2 5.7 2.4 0 3.4-2.4 4.3-2.4.3.1.6.4.6.8zm-14.6-7.3v-17.1c0-2.9.2-6.1-2.3-8.3-2.3-2.2-6.6-3.3-9.7-3-10.3.9-16.4 9-16.4 18.4s5.8 19.1 16.3 19.1c3.9 0 8.5-1.3 11.1-4.4 1.3-1.5 1-2.9 1-4.7z"/></g></svg>

<?xml version="1.0" encoding="UTF-8" standalone="no"?>
<!DOCTYPE svg PUBLIC "-//W3C//DTD SVG 1.1//EN" "http://www.w3.org/Graphics/SVG/1.1/DTD/svg11.dtd">
<svg width="100%" height="100%" viewBox="0 0 560 400" version="1.1" xmlns="http://www.w3.org/2000/svg" xmlns:xlink="http://www.w3.org/1999/xlink" xml:space="preserve" xmlns:serif="http://www.serif.com/" style="fill-rule:evenodd;clip-rule:evenodd;stroke-linejoin:round;stroke-miterlimit:1.41421;">
    <g transform="matrix(0.936768,0,0,0.936768,92.5995,59.4848)">
        <path id="blue" d="M7.9,84.1L7.9,174.5L66,133.3L97.1,155.4L97.1,84.1L7.9,84.1Z" style="fill:rgb(0,156,225);fill-rule:nonzero;"/>
        <path id="green" d="M66,150.2L7.9,191.3L7.9,217.3L97.2,217.3L97.2,172.2L66,150.2ZM74.6,198.1L57.3,198.1L57.3,174.1L74.6,174.1L74.6,198.1Z" style="fill:rgb(110,179,41);fill-rule:nonzero;"/>
        <path id="text" d="M124,147.9C120.1,147.9 116.2,148.3 112.3,148.3C111.4,148.3 110.6,148.1 110.6,147C110.6,145.7 112.8,145.8 113.7,145.8C120.9,145.8 120.4,143.7 120.4,137.3L120.4,95C120.4,88.6 120.8,86.8 113.7,86.8C112.7,86.8 110.5,86.7 110.5,85.4C110.5,84.4 111.3,84.1 112.2,84.1C115.5,84.1 118.6,84.5 121.8,84.5C133.5,84.5 145.2,84.1 157,84.1C159,84.1 158.6,86.1 158.6,87.7L158.6,94.9C158.6,95.7 159.1,98.9 157.6,98.9C156.6,98.9 156.2,97.5 156,96.7C153.2,87 147.1,86.9 138,86.9C136.3,86.9 130.9,86.9 129.3,87.6C127.8,88.3 128,91.2 128,92.5L128,107C128,111.8 128.9,111.8 133.1,111.8C136.2,111.8 141.5,111.9 145.5,111.4C148.1,111.1 148.6,107.3 149.1,104.3C149.2,103.7 149.5,102.6 150.4,102.6C150.9,102.6 151.5,102.8 151.5,103.6C151.4,106.5 151.2,109.5 151,112.4C151.2,115.7 151.4,118.7 151.5,122C151.5,123.6 150.9,123.8 150.4,123.8C149.5,123.8 149.2,122.7 149.1,122.1C148.6,119.1 147.8,116.1 145.5,115.5C141.5,114.6 136.2,114.6 133.1,114.6C129,114.6 128,114.6 128,118.1L128,137.2C128,143.8 127.6,145.6 134.7,145.7C135.6,145.7 137.4,145.6 137.4,146.9C137.4,148 136.6,148.2 135.7,148.2C131.6,148.3 127.9,147.9 124,147.9ZM189,110.4C189,107.6 186.5,105.9 183.6,105.9C177.1,105.9 173.4,113.4 172.5,113.4C171.8,113.4 172,111.8 172,111.4L172,106.8C172,106.2 172.1,105.3 171.2,105.3C170.4,105.3 170,106.1 169.5,106.5C168,108.3 163.9,110.7 161.7,111.4C160.9,111.7 159.5,111.9 159.5,113C159.5,113.6 160.1,113.8 160.6,113.8L161.8,113.8C162.6,113.8 164,113.9 164.5,114.5C165.5,115.5 165.4,119.2 165.4,120.5L165.4,138.2C165.4,142.2 166.2,145.5 161.2,145.9C160.2,146 158.6,145.8 158.6,147.2C158.6,148 159.3,148.1 159.9,148.1C162.8,148.1 165.8,147.7 168.9,147.7C171.7,147.7 174.7,148.1 177.8,148.1C178.5,148.1 178.9,147.8 178.9,147.1C178.9,145.9 177.2,146 176.2,145.9C171.1,145.4 172,142.2 172,138.2L172,123.3C172,119.5 171.9,117.1 174.2,113.9C175.3,112.5 176.9,110.5 179,110.5C181.6,110.5 181.8,114.1 185,114.1C187.3,114.2 189,112.7 189,110.4ZM188,127.4C188,121 189.8,116 194.8,111.7C199.5,107.5 205.4,105.4 211.8,105.4C216.9,105.4 222.1,107.2 225.4,111.2C227.3,113.5 228.7,117.6 228.7,120.7C228.7,121.5 228.5,122.3 227.6,122.3L199,122.3C196.1,122.3 195.1,122.1 195.1,125.2C195.1,135.8 202,144.9 213.4,144.9C222.7,144.9 226.1,138.8 227.4,138.8C227.9,138.8 228.2,139.2 228.2,139.5C228.2,140.6 225.2,143.2 224.5,143.7C220.1,147.5 215.4,149 209.6,149C197.1,149.1 188,139.2 188,127.4ZM195.8,118.8C195.8,120.3 198,120 199,120L206.6,120C209.5,120 214.8,119.9 217.5,119.2C219.6,118.7 221,117.7 221,115.4C221,113.4 219.9,111.3 218.5,109.8C216.4,107.6 213.3,107.4 210.3,107.4C205.5,107.4 200.9,109.7 198,113.7C197.3,114.9 195.8,117.3 195.8,118.8ZM358.6,125.2C358.6,135.8 365.5,144.9 376.9,144.9C386.2,144.9 389.6,138.8 390.9,138.8C391.4,138.8 391.6,139.2 391.6,139.5C391.6,140.6 388.6,143.2 387.9,143.7C383.5,147.5 378.8,149 373,149C360.6,149 351.5,139.1 351.5,127.3C351.5,120.9 353.3,115.9 358.3,111.6C363,107.4 368.9,105.3 375.3,105.3C380.4,105.3 385.6,107.1 388.9,111.1C390.8,113.4 392.2,117.5 392.2,120.6C392.2,121.4 392,122.2 391.1,122.2L362.5,122.2C359.5,122.3 358.6,122.1 358.6,125.2ZM359.3,118.8C359.3,120.3 361.5,120 362.5,120L370.1,120C373,120 378.3,119.9 381,119.2C383.1,118.7 384.5,117.7 384.5,115.4C384.5,113.4 383.4,111.3 382,109.8C379.9,107.6 376.8,107.4 373.8,107.4C369,107.4 364.4,109.7 361.5,113.7C360.8,114.9 359.3,117.3 359.3,118.8ZM342,97.1C344.7,97.1 346.1,94.9 346.1,92.4C346.1,90.1 344.6,87.9 342.1,87.9C339.6,87.9 337.8,90.2 337.8,92.6C338,95 339.5,97.1 342,97.1ZM349.6,146C344.5,145.5 345.3,142.3 345.3,138.3L345.3,106.8C345.3,106.1 345.4,105.3 344.5,105.3C343.7,105.3 343.3,106.1 342.8,106.5C341.3,108.3 337.2,110.7 335,111.4C334.2,111.7 332.8,111.9 332.8,113C332.8,113.6 333.4,113.8 333.9,113.8L335.1,113.8C335.8,113.8 337.3,113.9 337.8,114.5C338.8,115.5 338.7,119.2 338.7,120.5L338.7,138.2C338.7,142.3 339.6,145.5 334.5,145.9C333.5,146 331.9,145.8 331.9,147.2C331.9,148 332.6,148.1 333.2,148.1C336.1,148.1 339.1,147.7 342.2,147.7C345,147.7 348,148.1 351.1,148.1C351.7,148.1 352.2,147.8 352.2,147.1C352.2,146 350.5,146.1 349.6,146ZM180.5,215.1C179.2,215.1 177.8,215 176.8,213.9C175.7,212.6 175.8,208.8 175.8,207.3L175.8,168.4C175.8,166.7 175.4,163 176.6,161.7C177.4,160.7 179.5,161 180.7,161C181.7,161 183,160.8 183,159.5C183,158 181.3,158.5 180.3,158.5L169.8,158.5C168.8,158.5 167.8,158.5 167.3,159.7L147.7,204L130.5,161C129.9,159.5 129.8,158.3 128,158.3L117.1,158.3C116.1,158.3 114.4,157.8 114.4,159.3C114.4,160.6 115.7,160.8 116.7,160.8C121.8,160.8 121.8,161.1 121.8,166.2L121.8,208C121.5,212.6 121.2,215.1 115.9,215.1C115.1,215.1 113.4,215.2 113.4,216.3C113.4,217.2 114.1,217.4 114.9,217.4C117.6,217.4 120.5,217 123.3,217C126.1,217 129,217.4 131.8,217.4C132.7,217.4 133.9,217.4 133.9,216.3C133.9,215 131.9,215.1 131,215.1C124.3,215.1 124.8,210.5 124.7,204.5L124.7,165.6L125.3,165.6L143.9,213.4C144.1,214 144.4,215.2 145.3,215.2C146.1,215.2 146.4,214.2 146.7,213.5L167.6,164.5L168.3,164.5L168.3,207.2C168.3,208.9 168.5,212.4 166.9,213.7C165.9,214.5 163.9,215 162.5,215C161.6,215 159.6,214.8 159.6,216.2C159.6,217.2 160.6,217.3 161.4,217.3C165.1,217.3 168.9,216.9 172.6,216.9C175.6,216.9 178.6,217.3 181.7,217.3C182.4,217.3 183.5,217.2 183.5,216.2C183.4,214.9 181.4,215.1 180.5,215.1ZM225.3,211.9C225.3,212.9 223.7,214.3 223,214.8C221.1,216.1 218.7,217.5 216.3,217.5C211.7,217.5 211.2,210.9 209.9,210.9C209,210.9 202.9,218.1 194.7,218.1C190.3,218.1 185.8,215.4 185.8,210.7C185.8,204 194.6,200 199.7,197.5L207,194.1C210.4,192.5 210.5,192.4 210.5,188.8L210.5,184.6C210.5,180 210.3,176.6 204.5,176.6C198.7,176.6 195.8,179.2 193.6,184C192.9,185.4 192.5,186.7 191,187.4C190,187.9 188.1,188.6 186.9,188.6C186.2,188.6 185.7,188.4 185.7,187.5C185.7,185 187.9,182.3 189.7,180.8C194.1,176.8 200.5,174.3 206.6,174.3C209.5,174.3 213,174.8 215.2,176.7C217.5,178.6 217.1,181 217.1,183.6L217.1,206C217.1,208.1 217,213.5 220.4,213.5C222.8,213.5 223.8,211.1 224.7,211.1C225,211.2 225.3,211.6 225.3,211.9ZM209.9,194.7C209.6,194.7 209.2,195 208.9,195.1L200.3,199.4C196.6,201.3 192.9,203.7 192.9,208.3C192.9,212 195.9,213.7 199.4,213.7C202.7,213.7 205.9,212.2 208.2,209.9C210.5,207.5 210.6,206.1 210.6,203L210.6,197.3C210.6,197 210.9,194.7 209.9,194.7ZM260.8,209.4C260.3,209.4 259.7,210.3 259.4,210.5C256.5,213.3 252.6,214.7 248.6,214.7C238,214.7 231,204.9 231,195.3C231,189.5 233.4,183.8 237.8,180C240.2,177.9 244,176.3 247.3,176.3C254.9,176.3 256.6,186.5 259.6,186.5C261.3,186.5 260.7,182.5 260.7,181.7C260.7,180.5 261.2,178.4 260,177.6C257,175.5 252,174.5 248.4,174.5C235.8,174.5 223.9,184.5 223.9,197.2C223.9,208.6 233.4,218.2 245,218.2C250.1,218.2 254.8,216.7 258.7,213.6C259.4,213 261.5,211.2 261.5,210.2C261.4,209.8 261.2,209.4 260.8,209.4ZM282.8,143.2C282.8,144.2 281.2,145.6 280.5,146.1C278.6,147.4 276.2,148.8 273.8,148.8C271.6,148.8 270.4,148.2 269.6,145.8C269.4,145.3 268.7,142.7 267.7,142.7C266.3,142.7 260.8,149 253.2,149C241.2,149 232.8,138.5 232.8,127.2C232.8,121.3 235.2,116.1 239.4,112C243.6,108 247.8,105.4 255.5,105.2C259,105.1 262.5,106 265.6,107.2C266.1,107.4 266.9,107.8 267.4,107.8C268.5,107.8 268.2,104.9 268.2,104.3L268.2,95.3C268.2,91.8 269,87.7 264.5,87.7C263.6,87.7 262,88 262,86.7C262,86 262.8,85.8 263.3,85.7C265.9,85.2 269.5,84.3 271.8,82.8C272.3,82.4 273.1,81.8 273.8,81.8C274.8,81.8 274.6,82.5 274.6,83.3L274.6,139.1C274.6,140.1 274.8,144.8 277.8,144.8C280.2,144.8 281.2,142.4 282.1,142.4C282.6,142.5 282.8,142.8 282.8,143.2ZM268.2,135.9L268.2,118.8C268.2,115.9 268.4,112.7 265.9,110.5C263.6,108.3 259.3,107.2 256.2,107.5C245.9,108.4 239.8,116.5 239.8,125.9C239.8,135.3 245.6,145 256.1,145C260,145 264.6,143.7 267.2,140.6C268.5,139.1 268.2,137.7 268.2,135.9ZM330.6,143.2C330.6,144.2 329,145.6 328.3,146.1C326.4,147.4 324,148.8 321.6,148.8C319.4,148.8 318.2,148.2 317.4,145.8C317.2,145.3 316.5,142.7 315.5,142.7C314.1,142.7 308.6,149 301,149C289,149 280.6,138.5 280.6,127.2C280.6,121.3 283,116.1 287.2,112C291.4,108 295.7,105.4 303.3,105.2C306.8,105.1 310.3,106 313.4,107.2C313.9,107.4 314.7,107.8 315.2,107.8C316.3,107.8 316,104.9 316,104.3L316,95.3C316,91.8 316.8,87.7 312.3,87.7C311.4,87.7 309.8,88 309.8,86.7C309.8,86 310.6,85.8 311.1,85.7C313.7,85.2 317.3,84.3 319.6,82.8C320.1,82.4 320.9,81.8 321.6,81.8C322.5,81.8 322.5,82.5 322.5,83.3L322.5,139.1C322.5,140.1 322.7,144.8 325.7,144.8C328.1,144.8 329.1,142.4 330,142.4C330.3,142.5 330.6,142.8 330.6,143.2ZM316,135.9L316,118.8C316,115.9 316.2,112.7 313.7,110.5C311.4,108.3 307.1,107.2 304,107.5C293.7,108.4 287.6,116.5 287.6,125.9C287.6,135.3 293.4,145 303.9,145C307.8,145 312.4,143.7 315,140.6C316.3,139.1 316,137.7 316,135.9Z" style="fill-rule:nonzero;"/>
    </g>
</svg>
